X:142
T:Charlie Stuart. RH.142
T:Welcome,Charlie Stuart,aka. RH.142
T:Ye’re Welcome Charlie Stuart,aka. RH.142
R:Reel
S:Rev.R.Harrison’s MS,c1815,Cumbria
O:England
A:Temple Sowerby,Cumbria
Z:vmp.Simon Wilson. Review PJH, 2008.
M:C|
L:1/8
Q:1/2=80
K:D
B|AFEDG2GB|AFEDE3B|\
AFEDG3B|AFdFD3:|!
|:f|defd gfef|defd ecBA|\
defd gfeg|(fg/a/) ecd3:|

